X:256
T:Cross Roads
M:6/8
L:1/8
R:jig
D:Bonnie Rideout: Celtic Circles
Z:Michael Abraham Shulman
N:Set is Mary Do It Again - ~ - Jig in A
N:Suzi
K:A
|:cEE FEE|cEE Bcd|cEE FEE|ABA AFE|
cEE BEE|ABc def|efe dcB|ABA GFE:|
|:cee Bcd|cee Bcd|cee Bee|ABA AFE|
cee Bcd|cee efg|agf edc|BcA GFE:|
